X: 20154
T: WERE NA MY HEART LICHT I WAD DIE
O: Old Scottish air.
Q: "Slow."
%R: air, waltz, jig
B: W. Hamilton "Universal Tune-Book" Vol. 2 Glasgow 1846 p.15 #4
S: http://s3-eu-west-1.amazonaws.com/itma.dl.printmaterial/book_pdfs/hamiltonvol2web.pdf
Z: 2016 John Chambers <jc:trillian.mit.edu>
M: 6/8
L: 1/8
K: A
% - - - - - - - - - - - - - - - - - - - - - - - - -
E |\
FAB cef | (ec)B A2E | FAB cef | ecB c2e |\
cAB cef | (e>d)(c/B/) A2E | A>Bc caf | (e>d)c HB2 |]
% - - - - - - - - - - - - - - - - - - - - - - - - -
%%begintext align
%% The song, "There was ance a May and she fo'ed na men," is sung to the above air.
%%endtext
%%sep 1 1 300

%%sep 1 1 500
%%sep 1 1 500

